icon-themes/elementary_svg/cmd/32/dbnewquery.svg

<svg height="32" width="32" xmlns="http://www.w3.org/2000/svg" xmlns:xlink="http://www.w3.org/1999/xlink"><linearGradient id="a" gradientTransform="matrix(.4581255 0 0 .4388939 -31.619713 14.933095)" gradientUnits="userSpaceOnUse" spreadMethod="reflect" x1="102.30806" x2="102.30806" y1="-2.392547" y2="-24.582239"><stop offset="0" stop-color="#a5a6a8"/><stop offset="1" stop-color="#e8e8e8"/></linearGradient><linearGradient id="b" gradientTransform="matrix(.4581255 0 0 .4388939 -31.619713 14.933095)" gradientUnits="userSpaceOnUse" x1="109.95628" x2="109.95628" y1="-24.91135" y2="-2.375786"><stop offset="0" stop-color="#b3b3b3"/><stop offset="1" stop-color="#dadada"/></linearGradient><linearGradient id="c" gradientTransform="matrix(.4578345 0 0 .432286 -31.591968 18.911518)" gradientUnits="userSpaceOnUse" spreadMethod="reflect" x1="103.95014" x2="89.423676" xlink:href="#d" y1="-7.665694" y2="-7.665694"/><linearGradient id="d"><stop offset="0" stop-color="#868688"/><stop offset="1" stop-color="#d9d9da"/></linearGradient><linearGradient id="e" gradientUnits="userSpaceOnUse" x1="10.860975" x2="10.860975" xlink:href="#f" y1="12.990752" y2="17.999999"/><linearGradient id="f"><stop offset="0" stop-color="#a0a0a0"/><stop offset="1" stop-color="#4a4a4a"/></linearGradient><linearGradient id="g" gradientTransform="matrix(.4578345 0 0 .432286 -31.591968 24.911518)" gradientUnits="userSpaceOnUse" spreadMethod="reflect" x1="103.95014" x2="89.423676" xlink:href="#d" y1="-7.665694" y2="-7.665694"/><linearGradient id="h" gradientUnits="userSpaceOnUse" x1="10.860975" x2="10.860975" xlink:href="#f" y1="18.990752" y2="23.999999"/><linearGradient id="i" gradientTransform="matrix(.4578345 0 0 .432286 -31.591968 30.911518)" gradientUnits="userSpaceOnUse" spreadMethod="reflect" x1="103.95014" x2="89.423676" xlink:href="#d" y1="-7.665694" y2="-7.665694"/><linearGradient id="j" gradientUnits="userSpaceOnUse" x1="10.860975" x2="10.860975" xlink:href="#f" y1="24.990752" y2="29.999999"/><linearGradient id="k" gradientTransform="matrix(.59999998 0 0 .60526317 1.6 2.171052)" gradientUnits="userSpaceOnUse" x1="21.381216" x2="21.381216" y1="5.052486" y2="44.137077"><stop offset="0" stop-color="#fff"/><stop offset=".08125819" stop-color="#fff" stop-opacity=".235294"/><stop offset=".92327863" stop-color="#fff" stop-opacity=".156863"/><stop offset="1" stop-color="#fff" stop-opacity=".392157"/></linearGradient><radialGradient id="l" cx="23.334524" cy="41.63604" gradientTransform="matrix(.5745243 0 0 .2209368 2.59375 17.801069)" gradientUnits="userSpaceOnUse" r="22.627417"><stop offset="0"/><stop offset="1" stop-opacity="0"/></radialGradient><radialGradient id="m" cx="65.325226" cy="48.709068" gradientTransform="matrix(0 .68597915 -.7462606 0 60.288383 -27.737493)" gradientUnits="userSpaceOnUse" r="31.000002"><stop offset="0" stop-color="#cdf87e"/><stop offset=".26238" stop-color="#a2e34f"/><stop offset=".66093999" stop-color="#68b723"/><stop offset="1" stop-color="#1d7e0d"/></radialGradient><linearGradient id="n" gradientTransform="matrix(.42269325 0 0 .38513145 14.544843 15.082967)" gradientUnits="userSpaceOnUse" x1="24.138529" x2="24.138529" y1="10.170639" y2="36.135799"><stop offset="0" stop-color="#fff"/><stop offset="0" stop-color="#fff" stop-opacity=".235294"/><stop offset="1" stop-color="#fff" stop-opacity=".156863"/><stop offset="1" stop-color="#fff" stop-opacity=".392157"/></linearGradient><linearGradient id="o" gradientTransform="matrix(.38833389 0 0 .41842122 15.301011 14.318351)" gradientUnits="userSpaceOnUse" x1="24.138529" x2="24.138529" y1="20.748587" y2="25.52846"><stop offset="0" stop-color="#fff"/><stop offset=".00000003" stop-color="#fff" stop-opacity=".235294"/><stop offset="1" stop-color="#fff" stop-opacity=".156863"/><stop offset="1" stop-color="#fff" stop-opacity=".392157"/></linearGradient><path d="m29 27c.0011 2.761299-5.819514 5-13 5s-13.001109-2.238701-13-5c-.00111-2.761299 5.819514-5 13-5s13.00111 2.238701 13 5z" fill="url(#l)" fill-rule="evenodd" opacity=".3"/><path d="m27.490168 25.06775c0 2.446601-5.148729 4.43225-11.492687 4.43225-6.343968 0-11.492695-1.985649-11.492695-4.43225.11446-5.469422-1.40472-4.33998 11.492695-4.43225 13.192787-.0952 11.330827-1.126702 11.492687 4.43225z" fill="url(#i)" stroke="url(#j)"/><path d="m27.499999 21c0 2.485282-5.148726 4.5-11.499999 4.5-6.351275 0-11.500001-2.014718-11.500001-4.5 0-2.485281 5.148726-4.5 11.500001-4.5 6.351273 0 11.499999 2.014719 11.499999 4.5z" fill="#868688" stroke="#d8d8d8"/><path d="m27.490168 19.06775c0 2.446601-5.148729 4.43225-11.492687 4.43225-6.343968 0-11.492695-1.985649-11.492695-4.43225.11446-5.469422-1.40472-4.33998 11.492695-4.43225 13.192787-.0952 11.330827-1.126702 11.492687 4.43225z" fill="url(#g)" stroke="url(#h)"/><path d="m27.499999 15c0 2.485282-5.148726 4.5-11.499999 4.5-6.351275 0-11.500001-2.014718-11.500001-4.5 0-2.485281 5.148726-4.5 11.500001-4.5 6.351273 0 11.499999 2.014719 11.499999 4.5z" fill="#868688" stroke="#d8d8d8"/><path d="m27.490168 13.06775c0 2.446601-5.148729 4.43225-11.492687 4.43225-6.343968 0-11.492695-1.985649-11.492695-4.43225.11446-5.469422-1.40472-4.33998 11.492695-4.43225 13.192787-.095202 11.330827-1.126702 11.492687 4.43225z" fill="url(#c)" stroke="url(#e)"/><path d="m27.499999 9c0 2.485282-5.148726 4.5-11.499999 4.5-6.351275 0-11.500001-2.014718-11.500001-4.5 0-2.485281 5.148726-4.5 11.500001-4.5 6.351273 0 11.499999 2.014719 11.499999 4.5z" fill="url(#a)" stroke="url(#b)"/><rect fill="none" height="23" opacity=".5" rx="17.5" ry="4" stroke="url(#k)" width="21" x="5.5" y="5.499999"/><g transform="translate(0 .006868)"><path d="m21.5 21.5v-4.021022h5v4.021022h4.007287v5h-4.007287v4.007286h-5v-4.007286h-4.007286v-5z" fill="url(#m)"/><g fill="none"><path d="m22.5 23.003028v-4.503028h3v4.496972m0 2.003028v4.5h-3v-4.5" opacity=".5" stroke="url(#n)"/><path d="m26 22.512298 3.499869-.01086v2.987703l-3.499869.01086m-4 0-3.500131-.01086v-2.987703l3.500131.01086" opacity=".5" stroke="url(#o)"/><path d="m21.5 21.5v-4.021022h5v4.021022h4.007287v5h-4.007287v4.007286h-5v-4.007286h-4.007286v-5z" opacity=".5" stroke="#0f5a00" stroke-linecap="round" stroke-linejoin="round"/></g></g></svg>

<?xml version="1.0" encoding="UTF-8" standalone="no"?>
<svg
   xmlns:dc="http://purl.org/dc/elements/1.1/"
   xmlns:cc="http://creativecommons.org/ns#"
   xmlns:rdf="http://www.w3.org/1999/02/22-rdf-syntax-ns#"
   xmlns:svg="http://www.w3.org/2000/svg"
   xmlns="http://www.w3.org/2000/svg"
   xmlns:xlink="http://www.w3.org/1999/xlink"
   xmlns:sodipodi="http://sodipodi.sourceforge.net/DTD/sodipodi-0.dtd"
   xmlns:inkscape="http://www.inkscape.org/namespaces/inkscape"
   version="1.1"
   width="32"
   height="32"
   id="svg3234"
   sodipodi:docname="dbnewquery.svg"
   inkscape:version="0.92.3 (unknown)"
   inkscape:export-filename="/home/rizmut/Dokumen/Rizmut/Github/libreoffice-style-elementary/images_elementary/cmd/32/dbnewquery.png"
   inkscape:export-xdpi="96"
   inkscape:export-ydpi="96">
  <sodipodi:namedview
     pagecolor="#ffffff"
     bordercolor="#666666"
     borderopacity="1"
     objecttolerance="10"
     gridtolerance="10"
     guidetolerance="10"
     inkscape:pageopacity="0"
     inkscape:pageshadow="2"
     inkscape:window-width="1366"
     inkscape:window-height="706"
     id="namedview44"
     showgrid="false"
     inkscape:zoom="7.375"
     inkscape:cx="-1.4237288"
     inkscape:cy="16"
     inkscape:window-x="0"
     inkscape:window-y="0"
     inkscape:window-maximized="1"
     inkscape:current-layer="svg3234" />
  <defs
     id="defs3236">
    <linearGradient
       x1="102.30806"
       y1="-2.3925467"
       x2="102.30806"
       y2="-24.582239"
       id="linearGradient3136"
       xlink:href="#linearGradient3844"
       gradientUnits="userSpaceOnUse"
       gradientTransform="matrix(0.4581255,0,0,0.4388939,-31.619713,14.933095)"
       spreadMethod="reflect" />
    <linearGradient
       id="linearGradient3844">
      <stop
         id="stop3846"
         style="stop-color:#a5a6a8;stop-opacity:1"
         offset="0" />
      <stop
         id="stop3848"
         style="stop-color:#e8e8e8;stop-opacity:1"
         offset="1" />
    </linearGradient>
    <linearGradient
       x1="109.95628"
       y1="-24.91135"
       x2="109.95628"
       y2="-2.3757858"
       id="linearGradient3138"
       xlink:href="#linearGradient2509"
       gradientUnits="userSpaceOnUse"
       gradientTransform="matrix(0.4581255,0,0,0.4388939,-31.619713,14.933095)" />
    <linearGradient
       id="linearGradient2509">
      <stop
         id="stop2511"
         style="stop-color:#b3b3b3;stop-opacity:1"
         offset="0" />
      <stop
         id="stop2513"
         style="stop-color:#dadada;stop-opacity:1"
         offset="1" />
    </linearGradient>
    <linearGradient
       x1="103.95014"
       y1="-7.6656942"
       x2="89.423676"
       y2="-7.6656942"
       id="linearGradient3141"
       xlink:href="#linearGradient2793"
       gradientUnits="userSpaceOnUse"
       gradientTransform="matrix(0.4578345,0,0,0.432286,-31.591968,18.911518)"
       spreadMethod="reflect" />
    <linearGradient
       id="linearGradient2793">
      <stop
         id="stop2795"
         style="stop-color:#868688;stop-opacity:1"
         offset="0" />
      <stop
         id="stop2797"
         style="stop-color:#d9d9da;stop-opacity:1"
         offset="1" />
    </linearGradient>
    <linearGradient
       x1="89.01844"
       y1="22.536863"
       x2="89.01844"
       y2="27.54611"
       id="linearGradient3143"
       xlink:href="#linearGradient3858"
       gradientUnits="userSpaceOnUse"
       gradientTransform="translate(-78.157465,-9.546111)" />
    <linearGradient
       id="linearGradient3858">
      <stop
         id="stop3860"
         style="stop-color:#a0a0a0;stop-opacity:1"
         offset="0" />
      <stop
         id="stop3862"
         style="stop-color:#4a4a4a;stop-opacity:1"
         offset="1" />
    </linearGradient>
    <linearGradient
       x1="103.95014"
       y1="-7.6656942"
       x2="89.423676"
       y2="-7.6656942"
       id="linearGradient3147"
       xlink:href="#linearGradient2793"
       gradientUnits="userSpaceOnUse"
       gradientTransform="matrix(0.4578345,0,0,0.432286,-31.591968,24.911518)"
       spreadMethod="reflect" />
    <linearGradient
       x1="89.01844"
       y1="22.536863"
       x2="89.01844"
       y2="27.54611"
       id="linearGradient3149"
       xlink:href="#linearGradient3858"
       gradientUnits="userSpaceOnUse"
       gradientTransform="translate(-78.157465,-3.546111)" />
    <linearGradient
       x1="103.95014"
       y1="-7.6656942"
       x2="89.423676"
       y2="-7.6656942"
       id="linearGradient3153"
       xlink:href="#linearGradient2793"
       gradientUnits="userSpaceOnUse"
       gradientTransform="matrix(0.4578345,0,0,0.432286,-31.591968,30.911518)"
       spreadMethod="reflect" />
    <linearGradient
       x1="89.01844"
       y1="22.536863"
       x2="89.01844"
       y2="27.54611"
       id="linearGradient3155"
       xlink:href="#linearGradient3858"
       gradientUnits="userSpaceOnUse"
       gradientTransform="translate(-78.157465,2.453889)" />
    <linearGradient
       id="linearGradient23419">
      <stop
         id="stop23421"
         style="stop-color:#000000;stop-opacity:1"
         offset="0" />
      <stop
         id="stop23423"
         style="stop-color:#000000;stop-opacity:0"
         offset="1" />
    </linearGradient>
    <linearGradient
       x1="21.381216"
       y1="5.0524864"
       x2="21.381216"
       y2="44.137077"
       id="linearGradient3098"
       xlink:href="#linearGradient3125"
       gradientUnits="userSpaceOnUse"
       gradientTransform="matrix(0.59999998,0,0,0.60526317,1.6000001,2.1710523)" />
    <linearGradient
       id="linearGradient3125">
      <stop
         id="stop3127"
         style="stop-color:#ffffff;stop-opacity:1"
         offset="0" />
      <stop
         id="stop3129"
         style="stop-color:#ffffff;stop-opacity:0.23529412"
         offset="0.08125819" />
      <stop
         id="stop3131"
         style="stop-color:#ffffff;stop-opacity:0.15686275"
         offset="0.92327863" />
      <stop
         id="stop3133"
         style="stop-color:#ffffff;stop-opacity:0.39215687"
         offset="1" />
    </linearGradient>
    <radialGradient
       cx="23.334524"
       cy="41.63604"
       r="22.627417"
       fx="23.334524"
       fy="41.63604"
       id="radialGradient3232"
       xlink:href="#linearGradient23419"
       gradientUnits="userSpaceOnUse"
       gradientTransform="matrix(0.5745243,0,0,0.2209368,2.59375,17.801069)" />
    <radialGradient
       cx="65.325226"
       cy="48.709068"
       r="31.000002"
       fx="65.325226"
       fy="48.709068"
       id="radialGradient3343-7"
       xlink:href="#linearGradient3242-7-3-8-0-4-58-06"
       gradientUnits="userSpaceOnUse"
       gradientTransform="matrix(0,0.68597915,-0.7462606,0,60.288383,-27.737493)" />
    <linearGradient
       id="linearGradient3242-7-3-8-0-4-58-06">
      <stop
         id="stop3244-5-8-5-6-4-3-8"
         style="stop-color:#cdf87e;stop-opacity:1"
         offset="0" />
      <stop
         id="stop3246-9-5-1-5-3-0-7"
         style="stop-color:#a2e34f;stop-opacity:1"
         offset="0.26238" />
      <stop
         id="stop3248-7-2-0-7-5-35-9"
         style="stop-color:#68b723;stop-opacity:1"
         offset="0.66093999" />
      <stop
         id="stop3250-8-2-8-5-6-40-4"
         style="stop-color:#1d7e0d;stop-opacity:1"
         offset="1" />
    </linearGradient>
    <linearGradient
       gradientTransform="matrix(0.42269325,0,0,0.38513145,14.544843,15.082967)"
       gradientUnits="userSpaceOnUse"
       xlink:href="#linearGradient4154"
       id="linearGradient3030"
       y2="36.135799"
       x2="24.138529"
       y1="10.170639"
       x1="24.138529" />
    <linearGradient
       id="linearGradient4154">
      <stop
         offset="0"
         style="stop-color:#ffffff;stop-opacity:1"
         id="stop4156" />
      <stop
         offset="0"
         style="stop-color:#ffffff;stop-opacity:0.23529412"
         id="stop4158" />
      <stop
         offset="1"
         style="stop-color:#ffffff;stop-opacity:0.15686275"
         id="stop4160" />
      <stop
         offset="1"
         style="stop-color:#ffffff;stop-opacity:0.39215687"
         id="stop4162" />
    </linearGradient>
    <linearGradient
       gradientTransform="matrix(0.38833389,0,0,0.41842122,15.301011,14.318351)"
       gradientUnits="userSpaceOnUse"
       xlink:href="#linearGradient4333"
       id="linearGradient3030-1"
       y2="25.52846"
       x2="24.138529"
       y1="20.748587"
       x1="24.138529" />
    <linearGradient
       id="linearGradient4333">
      <stop
         id="stop4335"
         style="stop-color:#ffffff;stop-opacity:1"
         offset="0" />
      <stop
         id="stop4337"
         style="stop-color:#ffffff;stop-opacity:0.23529412"
         offset="0.00000003" />
      <stop
         id="stop4339"
         style="stop-color:#ffffff;stop-opacity:0.15686275"
         offset="1" />
      <stop
         id="stop4341"
         style="stop-color:#ffffff;stop-opacity:0.39215687"
         offset="1" />
    </linearGradient>
  </defs>
  <metadata
     id="metadata3239">
    <rdf:RDF>
      <cc:Work
         rdf:about="">
        <dc:format>image/svg+xml</dc:format>
        <dc:type
           rdf:resource="http://purl.org/dc/dcmitype/StillImage" />
        <dc:title></dc:title>
      </cc:Work>
    </rdf:RDF>
  </metadata>
  <g
     id="layer1">
    <path
       d="m 29,27 c 0.0011,2.761299 -5.819514,5 -13,5 C 8.819514,32 2.998891,29.761299 3,27 2.99889,24.238701 8.819514,22 16,22 c 7.180486,0 13.00111,2.238701 13,5 z"
       id="path23417"
       style="opacity:0.3;fill:url(#radialGradient3232);fill-opacity:1;fill-rule:evenodd;stroke:none;stroke-width:2;marker:none;visibility:visible;display:inline;overflow:visible" />
    <path
       d="m 27.490168,25.06775 c 0,2.446601 -5.148729,4.43225 -11.492687,4.43225 -6.343968,0 -11.492695,-1.985649 -11.492695,-4.43225 0.11446,-5.469422 -1.40472,-4.33998 11.492695,-4.43225 13.192787,-0.0952 11.330827,-1.126702 11.492687,4.43225 z"
       id="path4834"
       style="fill:url(#linearGradient3153);fill-opacity:1;stroke:url(#linearGradient3155);stroke-width:1;stroke-miterlimit:4;stroke-opacity:1;stroke-dasharray:none" />
    <path
       d="m 27.499999,21 c 0,2.485282 -5.148726,4.5 -11.499999,4.5 -6.351275,0 -11.500001,-2.014718 -11.500001,-4.5 0,-2.485281 5.148726,-4.5 11.500001,-4.5 6.351273,0 11.499999,2.014719 11.499999,4.5 l 0,0 z"
       id="path4838"
       style="fill:#868688;fill-opacity:1;stroke:#d8d8d8;stroke-width:1;stroke-miterlimit:4;stroke-opacity:1;stroke-dasharray:none" />
    <path
       d="m 27.490168,19.06775 c 0,2.446601 -5.148729,4.43225 -11.492687,4.43225 -6.343968,0 -11.492695,-1.985649 -11.492695,-4.43225 0.11446,-5.469422 -1.40472,-4.33998 11.492695,-4.43225 13.192787,-0.0952 11.330827,-1.126702 11.492687,4.43225 z"
       id="path3866"
       style="fill:url(#linearGradient3147);fill-opacity:1;stroke:url(#linearGradient3149);stroke-width:1;stroke-miterlimit:4;stroke-opacity:1;stroke-dasharray:none" />
    <path
       d="m 27.499999,15 c 0,2.485282 -5.148726,4.5 -11.499999,4.5 -6.351275,0 -11.500001,-2.014718 -11.500001,-4.5 0,-2.485281 5.148726,-4.5 11.500001,-4.5 6.351273,0 11.499999,2.014719 11.499999,4.5 l 0,0 z"
       id="path3868"
       style="fill:#868688;fill-opacity:1;stroke:#d8d8d8;stroke-width:1;stroke-miterlimit:4;stroke-opacity:1;stroke-dasharray:none" />
    <path
       d="M 27.490168,13.06775 C 27.490168,15.514351 22.341439,17.5 15.997481,17.5 9.653513,17.5 4.504786,15.514351 4.504786,13.06775 4.619246,7.598328 3.100066,8.72777 15.997481,8.6355 29.190268,8.540298 27.328308,7.508798 27.490168,13.06775 z"
       id="path3878"
       style="fill:url(#linearGradient3141);fill-opacity:1;stroke:url(#linearGradient3143);stroke-width:1;stroke-miterlimit:4;stroke-opacity:1;stroke-dasharray:none" />
    <path
       d="m 27.499999,9 c 0,2.485282 -5.148726,4.5 -11.499999,4.5 C 9.648725,13.5 4.499999,11.485282 4.499999,9 4.499999,6.514719 9.648725,4.5 16,4.5 22.351273,4.5 27.499999,6.514719 27.499999,9 l 0,0 z"
       id="path3880"
       style="fill:url(#linearGradient3136);fill-opacity:1;stroke:url(#linearGradient3138);stroke-width:1;stroke-miterlimit:4;stroke-opacity:1;stroke-dasharray:none" />
    <rect
       width="21"
       height="23"
       rx="17.5"
       ry="4"
       x="5.5"
       y="5.499999"
       id="rect3145"
       style="opacity:0.5;color:#000000;fill:none;stroke:url(#linearGradient3098);stroke-width:0.99999994;stroke-opacity:1;marker:none;visibility:visible;display:inline;overflow:visible;enable-background:accumulate" />
  </g>
  <g
     id="g4374"
     transform="translate(0,0.006868)">
    <path
       inkscape:connector-curvature="0"
       d="m 21.5,21.5 v -4.021022 h 5 V 21.5 h 4.007287 v 5 H 26.5 v 4.007286 h -5 V 26.5 h -4.007286 v -5 z"
       id="path2262"
       style="color:#000000;display:inline;overflow:visible;visibility:visible;fill:url(#radialGradient3343-7);fill-opacity:1;fill-rule:nonzero;stroke:none;stroke-width:0.98542744;stroke-linecap:round;stroke-linejoin:round;stroke-miterlimit:4;stroke-dasharray:none;stroke-dashoffset:0;stroke-opacity:1;marker:none;enable-background:accumulate" />
    <path
       inkscape:connector-curvature="0"
       style="display:inline;opacity:0.5;fill:none;stroke:url(#linearGradient3030);stroke-width:1;stroke-linecap:butt;stroke-linejoin:miter;stroke-miterlimit:4;stroke-dasharray:none;stroke-opacity:1"
       id="path2272-4"
       d="M 22.5,23.003028 V 18.5 h 3 v 4.496972 M 25.5,25 v 4.5 h -3 V 25" />
    <path
       inkscape:connector-curvature="0"
       style="display:inline;opacity:0.5;fill:none;stroke:url(#linearGradient3030-1);stroke-width:0.99999994;stroke-linecap:butt;stroke-linejoin:miter;stroke-miterlimit:4;stroke-dasharray:none;stroke-opacity:1"
       id="path2272-2"
       d="m 26,22.512298 3.499869,-0.01086 v 2.987703 L 26,25.500001 m -4,0 -3.500131,-0.01086 V 22.501438 L 22,22.512298" />
    <path
       inkscape:connector-curvature="0"
       d="m 21.5,21.5 v -4.021022 h 5 V 21.5 h 4.007287 v 5 H 26.5 v 4.007286 h -5 V 26.5 h -4.007286 v -5 z"
       id="path2262-9"
       style="color:#000000;clip-rule:nonzero;display:inline;overflow:visible;visibility:visible;opacity:0.5;isolation:auto;mix-blend-mode:normal;color-interpolation:sRGB;color-interpolation-filters:linearRGB;solid-color:#000000;solid-opacity:1;fill:none;fill-opacity:1;fill-rule:nonzero;stroke:#0f5a00;stroke-width:1;stroke-linecap:round;stroke-linejoin:round;stroke-miterlimit:4;stroke-dasharray:none;stroke-dashoffset:0;stroke-opacity:1;marker:none;color-rendering:auto;image-rendering:auto;shape-rendering:auto;text-rendering:auto;enable-background:accumulate" />
  </g>
</svg>
